svg/fluentui-system-icons/ic_fluent_trophy_lock_24_filled.svg

<svg width="24" height="24" viewBox="0 0 24 24" fill="none" xmlns="http://www.w3.org/2000/svg">
<path d="M15.2536 2C16.4119 2 17.3657 2.87524 17.4899 4.00044L18.7576 4C19.6758 4 20.4288 4.70711 20.5018 5.60647L20.5076 5.75V8.75C20.5076 9.18468 20.4223 9.59943 20.2675 9.97842C19.8388 9.7271 19.3518 9.56442 18.8318 9.51552C18.9231 9.32804 18.982 9.1218 19.0009 8.90415L19.0076 8.75V5.75C19.0076 5.63165 18.9254 5.53251 18.815 5.5066L18.7576 5.5H17.5036V9.64388C16.056 10.073 15 11.4132 15 13V13.05C13.8589 13.2816 13 14.2905 13 15.5V15.8642C12.8361 15.9005 12.6695 15.9298 12.5007 15.9517L12.5001 17.5H13V20.5C13 21.0628 13.186 21.5822 13.4998 22H6.75056C6.37086 22 6.05707 21.7178 6.00741 21.3518L6.00056 21.25V20.75C6.00056 19.017 7.35702 17.6008 9.06614 17.5051L9.25056 17.5H11.0001L11.0004 15.9513C8.76915 15.6601 6.93987 14.09 6.27235 12.0007L6.24609 12C4.45117 12 2.99609 10.5449 2.99609 8.75V5.75C2.99609 4.7835 3.7796 4 4.74609 4L6.01424 4.00044C6.13841 2.87524 7.09227 2 8.25056 2H15.2536ZM6.00056 5.5H4.74609C4.60802 5.5 4.49609 5.61193 4.49609 5.75V8.75C4.49609 9.63316 5.15031 10.3635 6.00056 10.4829V5.5ZM16 14V13C16 11.6193 17.1193 10.5 18.5 10.5C19.8807 10.5 21 11.6193 21 13V14H21.5C22.3284 14 23 14.6716 23 15.5V20.5C23 21.3284 22.3284 22 21.5 22H15.5C14.6716 22 14 21.3284 14 20.5V15.5C14 14.6716 14.6716 14 15.5 14H16ZM17.5 13V14H19.5V13C19.5 12.4477 19.0523 12 18.5 12C17.9477 12 17.5 12.4477 17.5 13ZM19.5 18C19.5 17.4477 19.0523 17 18.5 17C17.9477 17 17.5 17.4477 17.5 18C17.5 18.5523 17.9477 19 18.5 19C19.0523 19 19.5 18.5523 19.5 18Z" fill="#212121"/>
</svg>

<svg xmlns="http://www.w3.org/2000/svg" width="24" height="24"><path d="M15.254 2a2.25 2.25 0 0 1 2.236 2h1.268a1.75 1.75 0 0 1 1.744 1.606l.006.144v3c0 .435-.086.85-.24 1.228a3.478 3.478 0 0 0-1.436-.462 1.75 1.75 0 0 0 .169-.612l.007-.154v-3a.25.25 0 0 0-.193-.243l-.057-.007h-1.254v4.144A3.502 3.502 0 0 0 15 13v.05a2.5 2.5 0 0 0-2 2.45v.364c-.164.036-.33.066-.5.088V17.5h.5v3c0 .563.186 1.082.5 1.5H6.75a.75.75 0 0 1-.743-.648l-.006-.102v-.5a3.25 3.25 0 0 1 3.065-3.245l.185-.005H11v-1.549a5.758 5.758 0 0 1-4.729-3.95L6.246 12a3.25 3.25 0 0 1-3.25-3.25v-3c0-.966.784-1.75 1.75-1.75h1.268a2.25 2.25 0 0 1 2.237-2h7.003ZM6 5.5H4.746a.25.25 0 0 0-.25.25v3a1.75 1.75 0 0 0 1.505 1.733V5.5ZM16 14v-1a2.5 2.5 0 0 1 5 0v1h.5a1.5 1.5 0 0 1 1.5 1.5v5a1.5 1.5 0 0 1-1.5 1.5h-6a1.5 1.5 0 0 1-1.5-1.5v-5a1.5 1.5 0 0 1 1.5-1.5h.5Zm1.5-1v1h2v-1a1 1 0 1 0-2 0Zm2 5a1 1 0 1 0-2 0 1 1 0 0 0 2 0Z"/></svg>
